X: 31
M: C
L: 1/8
K: G
|: ef |\
gfge dBAB | gfga g/a/baf | ageg bagf | e2a2 a2ga |
bagf efge | dBg>e dBAB | efge dBAB | G2E2 E2 :|




